packages/icons/web/store_filled_large.svg

<svg width="24" height="24" viewBox="0 0 24 24" fill="none" xmlns="http://www.w3.org/2000/svg">
<path fill-rule="evenodd" clip-rule="evenodd" d="M6 10.5C6.55228 10.5 7 10.9477 7 11.5V13.5C7 13.7761 7.22386 14 7.5 14H16.5C16.7761 14 17 13.7761 17 13.5V11.5C17 10.9477 17.4477 10.5 18 10.5C18.5523 10.5 19 10.9477 19 11.5V13.5C19 14.8807 17.8807 16 16.5 16H7.5C6.11929 16 5 14.8807 5 13.5V11.5C5 10.9477 5.44772 10.5 6 10.5Z" fill="#212933"/>
<path fill-rule="evenodd" clip-rule="evenodd" d="M7.23672 14.25C6.1951 14.25 5.24288 14.8385 4.77705 15.7702L3.41525 18.4938C2.66723 19.9898 3.7551 21.75 5.42771 21.75H18.5737C20.2463 21.75 21.3342 19.9898 20.5861 18.4937L19.2243 15.7701C18.7584 14.8385 17.8062 14.25 16.7646 14.25H7.23672ZM11.0005 16.75C10.3101 16.75 9.75049 17.3096 9.75049 18C9.75049 18.6904 10.3101 19.25 11.0005 19.25H13.0005C13.6908 19.25 14.2505 18.6904 14.2505 18C14.2505 17.3096 13.6908 16.75 13.0005 16.75H11.0005Z" fill="#212933"/>
<path fill-rule="evenodd" clip-rule="evenodd" d="M11.2497 2H8.67309L7.44985 8.93167C7.81838 9.45338 8.454 10 9.49958 10C10.3039 10 10.8656 9.67657 11.2497 9.28983V2ZM12.7497 9.29013C13.1339 9.67673 13.6955 10 14.4996 10C15.5025 10 16.1283 9.49704 16.5029 8.99557L15.3983 2H12.7497V9.29013ZM19.4996 9C18.915 9.19485 18.4064 9.08597 18.0033 8.88048L16.9169 2H18.3226C18.7315 2 19.0992 2.24895 19.251 2.62861L20.8565 6.64238C20.951 6.87862 21.0044 7.1324 20.95 7.38094C20.845 7.8599 20.5181 8.66049 19.4996 9ZM7.14991 2H5.67662C5.26771 2 4.9 2.24895 4.74814 2.62861L3.14263 6.64238C3.04813 6.87862 2.99473 7.1324 3.04919 7.38094C3.15412 7.8599 3.48105 8.66049 4.49958 9C5.05275 9.18439 5.53792 9.09678 5.93002 8.91272L7.14991 2Z" fill="#212933"/>
</svg>

<svg width="24" height="24" fill="none" xmlns="http://www.w3.org/2000/svg">
    <path fill-rule="evenodd" clip-rule="evenodd" d="M6 10.5a1 1 0 011 1v2a.5.5 0 00.5.5h9a.5.5 0 00.5-.5v-2a1 1 0 112 0v2a2.5 2.5 0 01-2.5 2.5h-9A2.5 2.5 0 015 13.5v-2a1 1 0 011-1z" fill="currentColor"/>
    <path fill-rule="evenodd" clip-rule="evenodd" d="M7.237 14.25a2.75 2.75 0 00-2.46 1.52l-1.362 2.724c-.748 1.496.34 3.256 2.013 3.256h13.146c1.672 0 2.76-1.76 2.012-3.256l-1.362-2.724a2.75 2.75 0 00-2.46-1.52H7.238zM11 16.75a1.25 1.25 0 100 2.5h2a1.25 1.25 0 000-2.5h-2zM11.25 2H8.673L7.45 8.932C7.818 9.453 8.454 10 9.5 10c.804 0 1.366-.323 1.75-.71V2zm1.5 7.29c.384.387.945.71 1.75.71 1.002 0 1.628-.503 2.003-1.004L15.398 2H12.75v7.29zM19.5 9a1.885 1.885 0 01-1.497-.12L16.917 2h1.406a1 1 0 01.928.629l1.605 4.013c.095.237.148.49.094.739-.105.479-.432 1.28-1.45 1.619zM7.15 2H5.677a1 1 0 00-.929.629L3.143 6.642c-.095.237-.148.49-.094.739.105.479.432 1.28 1.45 1.619a1.875 1.875 0 001.431-.087L7.15 2z" fill="currentColor"/>
</svg>
